X:104
T:Shorelines
M:C|
L:1/8
C:© Paul Gitlitz 2006
R:Reel
B:Anna's Smile
N:Written while vacationing on Saltspring Island.
K:D
FG|"D"AdAG "F#m"FEDF|"A"EDCE "D"D2FG|Adfd "A"edef|"Em"gfed "A"e2fg|!
"D"afdg "Em"bgeb|"F#m"afdf "G"edcB|"D"AdAG "F#m"FEDF|1 "A"EDCE "D"D2:|2"A" EDCA, "D"D2fg|!
|:"D"afdg "Em"bgeb|"D"afdf "A"eAcA|"D"afdg "G"bagf|"Em"edcB "A"A2FG|!
"D"Adfd "A"edef|"Em"gfed "A"e2FG|"D"AdAG "F#m"FEDF|1"A"EDCE "D"D2fg:|2"A"EDCA, "D"D4|]
